src/assets/svg/cart.svg

<svg id="cart" width="11" height="12" viewBox="0 0 14 12" fill="none" xmlns="http://www.w3.org/2000/svg"><path d="M12.8363 7.06216l1.149-4.875c.0829-.35198-.1945-.68716-.5689-.68716H3.86964L3.64686.449766C3.59134.187992 3.35247 0 3.07536 0H.583333C.261163 0 0 .251836 0 .5625v.375C0 1.24816.261163 1.5.583333 1.5H2.28188L3.9893 9.54926c-.40848.22652-.68374.65124-.68374 1.13824 0 .7249.60939 1.3125 1.36111 1.3125s1.36111-.5876 1.36111-1.3125c0-.3674-.1567-.69926-.40892-.9375h5.09564c-.2522.23824-.4089.5701-.4089.9375 0 .7249.6093 1.3125 1.3611 1.3125.7517 0 1.3611-.5876 1.3611-1.3125 0-.5197-.3133-.96872-.7676-1.18137l.1341-.56897c.083-.35198-.1945-.68716-.5688-.68716H5.30146l-.15908-.75h7.12502c.2724 0 .5085-.18173.5689-.43784z" fill="#222"/></svg>

<svg id="cart" width="14" height="12" viewBox="0 0 14 12" fill="none" xmlns="http://www.w3.org/2000/svg">
<path d="M12.8363 7.06216L13.9853 2.18716C14.0682 1.83518 13.7908 1.5 13.4164 1.5H3.86964L3.64686 0.449766C3.59134 0.187992 3.35247 0 3.07536 0H0.583333C0.261163 0 0 0.251836 0 0.5625V0.9375C0 1.24816 0.261163 1.5 0.583333 1.5H2.28188L3.9893 9.54926C3.58082 9.77578 3.30556 10.2005 3.30556 10.6875C3.30556 11.4124 3.91495 12 4.66667 12C5.41839 12 6.02778 11.4124 6.02778 10.6875C6.02778 10.3201 5.87108 9.98824 5.61886 9.75H10.7145C10.4623 9.98824 10.3056 10.3201 10.3056 10.6875C10.3056 11.4124 10.9149 12 11.6667 12C12.4184 12 13.0278 11.4124 13.0278 10.6875C13.0278 10.1678 12.7145 9.71878 12.2602 9.50613L12.3943 8.93716C12.4773 8.58518 12.1998 8.25 11.8255 8.25H5.30146L5.14238 7.5H12.2674C12.5398 7.5 12.7759 7.31827 12.8363 7.06216Z" fill="#787878"/>
</svg>
